src/assets/duotone/Barcode.svg

<?xml version="1.0" encoding="UTF-8"?>
<svg width="24" height="24" viewBox="0 0 24 24" xmlns="http://www.w3.org/2000/svg">
 <path d="m17 20.5h-10c-3 0-5-1.5-5-5v-7c0-3.5 2-5 5-5h10c3 0 5 1.5 5 5v7c0 3.5-2 5-5 5z" opacity=".4"/>
 <path d="m6 16.75c-0.41 0-0.75-0.34-0.75-0.75v-8c0-0.41 0.34-0.75 0.75-0.75s0.75 0.34 0.75 0.75v8c0 0.41-0.34 0.75-0.75 0.75z"/>
 <path d="m9 12.75c-0.41 0-0.75-0.34-0.75-0.75v-4c0-0.41 0.34-0.75 0.75-0.75s0.75 0.34 0.75 0.75v4c0 0.41-0.34 0.75-0.75 0.75z"/>
 <path d="m9 16.75c-0.41 0-0.75-0.34-0.75-0.75v-1c0-0.41 0.34-0.75 0.75-0.75s0.75 0.34 0.75 0.75v1c0 0.41-0.34 0.75-0.75 0.75z"/>
 <path d="m15 9.75c-0.41 0-0.75-0.34-0.75-0.75v-1c0-0.41 0.34-0.75 0.75-0.75s0.75 0.34 0.75 0.75v1c0 0.41-0.34 0.75-0.75 0.75z"/>
 <path d="m12 16.75c-0.41 0-0.75-0.34-0.75-0.75v-8c0-0.41 0.34-0.75 0.75-0.75s0.75 0.34 0.75 0.75v8c0 0.41-0.34 0.75-0.75 0.75z"/>
 <path d="m15 16.75c-0.41 0-0.75-0.34-0.75-0.75v-4c0-0.41 0.34-0.75 0.75-0.75s0.75 0.34 0.75 0.75v4c0 0.41-0.34 0.75-0.75 0.75z"/>
 <path d="m18 16.75c-0.41 0-0.75-0.34-0.75-0.75v-8c0-0.41 0.34-0.75 0.75-0.75s0.75 0.34 0.75 0.75v8c0 0.41-0.34 0.75-0.75 0.75z"/>
</svg>

<svg width="24" height="24" viewBox="0 0 24 24"  xmlns="http://www.w3.org/2000/svg">
<path opacity="0.4" d="M17 20.5H7C4 20.5 2 19 2 15.5V8.5C2 5 4 3.5 7 3.5H17C20 3.5 22 5 22 8.5V15.5C22 19 20 20.5 17 20.5Z" />
<path d="M6 16.75C5.59 16.75 5.25 16.41 5.25 16V8C5.25 7.59 5.59 7.25 6 7.25C6.41 7.25 6.75 7.59 6.75 8V16C6.75 16.41 6.41 16.75 6 16.75Z" />
<path d="M9 12.75C8.59 12.75 8.25 12.41 8.25 12V8C8.25 7.59 8.59 7.25 9 7.25C9.41 7.25 9.75 7.59 9.75 8V12C9.75 12.41 9.41 12.75 9 12.75Z" />
<path d="M9 16.75C8.59 16.75 8.25 16.41 8.25 16V15C8.25 14.59 8.59 14.25 9 14.25C9.41 14.25 9.75 14.59 9.75 15V16C9.75 16.41 9.41 16.75 9 16.75Z" />
<path d="M15 9.75C14.59 9.75 14.25 9.41 14.25 9V8C14.25 7.59 14.59 7.25 15 7.25C15.41 7.25 15.75 7.59 15.75 8V9C15.75 9.41 15.41 9.75 15 9.75Z" />
<path d="M12 16.75C11.59 16.75 11.25 16.41 11.25 16V8C11.25 7.59 11.59 7.25 12 7.25C12.41 7.25 12.75 7.59 12.75 8V16C12.75 16.41 12.41 16.75 12 16.75Z" />
<path d="M15 16.75C14.59 16.75 14.25 16.41 14.25 16V12C14.25 11.59 14.59 11.25 15 11.25C15.41 11.25 15.75 11.59 15.75 12V16C15.75 16.41 15.41 16.75 15 16.75Z" />
<path d="M18 16.75C17.59 16.75 17.25 16.41 17.25 16V8C17.25 7.59 17.59 7.25 18 7.25C18.41 7.25 18.75 7.59 18.75 8V16C18.75 16.41 18.41 16.75 18 16.75Z" />
</svg>
